X:1
T:Title
%%score { ( 1 3 ) | 2 }
L:1/8
M:3/4
K:G
V:1 treble nm="Grand Piano"
V:3 treble 
V:2 treble 
V:1
 z2 z2[Q:1/4=86] (3DBA | G3 B [DAc]>[CGB] | z2 z2 .B2 | d3 G BG |[M:3/8] [FA]3 | DB>A | %6
[M:3/4] G3 G AB | [Ec]4 [Gc]2 | [Gd]3 [GB] [EB]>[FA] |[M:2/4] G4 |[M:1/4] (3GFG | %11
[M:3/4] [CFA]3 [CFA] [B,G]>[DFA] | B4 (3BAB | [Ec]4 (3[GB][EB][FA] |[M:2/4] [DG]4 |] %15
V:2
 z2 z2 (3[G,B,][G,DG][G,CF] | [G,B,]3 [G,DG][K:bass] F,>G, | D,4 G,A, | %3
 [B,DG]3 [B,D] [G,DG][K:bass][E,^C] |[M:3/8] [D,D]3 | [F,C][K:treble][G,B,D]>[G,CF] | %6
[M:3/4] [G,B,]3 [G,B,] [G,CF][G,D=F] | [C,C]4 [E,C]2 | [D,B,]3 [D,D] [D,D]>[D,C] |[M:2/4] [G,B,]4 | %10
[M:1/4] (3[G,B,D][A,CD][G,B,D] |[M:3/4] D,3 D, E,>D, | [G,DG]4 (3[G,DG][G,CG][G,D=F] | %13
 [C,C]4 (3[D,G,][D,D][D,C] |[M:2/4] [G,B,]4 |] %15
V:3
 x6 | x6 | [DFA]4 [DG]-[DGc] | x6 |[M:3/8] x3 | x3 |[M:3/4] x6 | x6 | x6 |[M:2/4] x4 |[M:1/4] x2 | %11
[M:3/4] x6 | x6 | x6 |[M:2/4] x4 |] %15

